arkscan/icons/coindcx.svg

<svg viewBox="0 0 20 14" fill="none" xmlns="http://www.w3.org/2000/svg">
  <path
    d="M4.629 10.8517C4.99066 9.87524 5.71399 9.07957 6.65431 8.57324L8.24563 9.47741C8.89663 9.83907 8.75196 10.8517 8.1733 11.1772L4.91833 13.0217C4.7375 13.1302 4.48433 13.0579 4.412 12.8771C4.37583 12.8409 4.37583 12.8047 4.37583 12.7324C4.3035 12.1176 4.412 11.4666 4.629 10.8517Z"
    fill="#E82424" />
  <path
    d="M9.72875 6.62029C9.72875 6.0778 9.43942 5.57146 8.96926 5.24596L0 0.146484C0.108499 3.07597 1.69982 5.71613 4.23146 7.19896L8.24593 9.47745C8.89693 9.83911 8.75226 10.8518 8.1736 11.1773L9.18626 10.5986C9.51175 10.4178 9.69259 10.0923 9.69259 9.73061V8.57328L9.72875 6.62029Z"
    fill="#F3A100" />
  <path opacity="0.2"
    d="M8.24562 9.51354L6.6543 8.60938C6.6543 8.60938 7.66696 9.47737 8.06479 9.91137C8.42645 10.3454 8.20945 11.2134 8.20945 11.2134C8.75195 10.8879 8.89661 9.8752 8.24562 9.51354Z"
    fill="black" />
  <path
    d="M15.3713 3.11208C15.0097 4.08858 14.2863 4.88424 13.346 5.39057L11.7547 4.48641C11.1037 4.12475 11.2484 3.11208 11.827 2.78658L15.082 0.942091C15.2628 0.833592 15.516 0.905925 15.5883 1.08676C15.6245 1.12292 15.6245 1.19526 15.6245 1.23142C15.6968 1.88242 15.5883 2.53342 15.3713 3.11208Z"
    fill="#E82424" />
  <path
    d="M10.2715 7.37977C10.2715 7.92227 10.5608 8.4286 11.031 8.7541L20.0002 13.8536C19.8917 10.9241 18.3004 8.28393 15.7688 6.76494L11.7543 4.48645C11.1033 4.12478 11.248 3.11212 11.8266 2.78662L10.814 3.36529C10.4885 3.54612 10.3077 3.87162 10.3077 4.23328V5.39061C10.3077 5.42678 10.2715 7.37977 10.2715 7.37977Z"
    fill="#F3A100" />
  <path opacity="0.2"
    d="M11.7547 4.48645L13.346 5.39061C13.346 5.39061 12.3333 4.52261 11.9355 4.08862C11.5739 3.65462 11.827 2.78662 11.827 2.78662C11.2484 3.11212 11.1037 4.12478 11.7547 4.48645Z"
    fill="black" />
</svg>

<svg viewBox="0 0 20 14" fill="none" xmlns="http://www.w3.org/2000/svg"><path d="M4.629 10.852c.362-.977 1.085-1.772 2.025-2.279l1.592.904c.65.362.506 1.375-.073 1.7l-3.255 1.845c-.18.108-.434.036-.506-.145-.036-.036-.036-.072-.036-.145-.073-.614.036-1.265.253-1.88Z" fill="#E82424"/><path d="M9.729 6.62c0-.542-.29-1.049-.76-1.374L0 .146A8.519 8.519 0 0 0 4.231 7.2l4.015 2.278c.65.362.506 1.375-.072 1.7l1.012-.578a.974.974 0 0 0 .507-.868V8.573l.036-1.953Z" fill="#F3A100"/><path opacity=".2" d="m8.246 9.514-1.592-.905s1.013.868 1.41 1.302c.362.434.145 1.302.145 1.302.543-.325.688-1.338.037-1.7Z" fill="#000"/><path d="M15.371 3.112c-.361.977-1.085 1.772-2.025 2.279l-1.591-.905c-.651-.361-.507-1.374.072-1.7L15.082.943c.18-.108.434-.036.506.145.037.036.037.108.037.144a4.105 4.105 0 0 1-.254 1.881Z" fill="#E82424"/><path d="M10.271 7.38c0 .542.29 1.049.76 1.374l8.97 5.1c-.11-2.93-1.7-5.57-4.232-7.09l-4.015-2.278c-.65-.361-.506-1.374.073-1.7l-1.013.58a.974.974 0 0 0-.506.867v1.158L10.27 7.38Z" fill="#F3A100"/><path opacity=".2" d="m11.755 4.486 1.591.905s-1.013-.868-1.41-1.302c-.362-.434-.109-1.302-.109-1.302-.579.325-.723 1.338-.072 1.7Z" fill="#000"/></svg>
